dataset/figma/icon.svg

<svg xmlns="http://www.w3.org/2000/svg" xmlns:xlink="http://www.w3.org/1999/xlink" width="128" height="128" style="display:inline" viewBox="0 0 128 128"><title>Adwaita Icon Template</title><defs><linearGradient id="b"><stop offset="0" style="stop-color:#4b505d;stop-opacity:1"/><stop offset="1" style="stop-color:#424652;stop-opacity:1"/></linearGradient><linearGradient id="a"><stop offset="0" style="stop-color:#2b2e36;stop-opacity:1"/><stop offset=".042" style="stop-color:#4b505d;stop-opacity:1"/><stop offset=".083" style="stop-color:#2b2e36;stop-opacity:1"/><stop offset=".917" style="stop-color:#2b2e36;stop-opacity:1"/><stop offset=".958" style="stop-color:#4b505d;stop-opacity:1"/><stop offset="1" style="stop-color:#2b2e36;stop-opacity:1"/></linearGradient><linearGradient xlink:href="#a" id="c" x1="48" x2="464" y1="44" y2="44" gradientTransform="matrix(.25 0 0 .25 0 53)" gradientUnits="userSpaceOnUse"/><linearGradient xlink:href="#b" id="d" x1="64" x2="64" y1="12" y2="112" gradientUnits="userSpaceOnUse"/></defs><rect width="104" height="84" x="12" y="32" rx="8" ry="8" style="display:inline;fill:url(#c);fill-opacity:1;stroke:none;stroke-width:.25;stroke-linecap:butt;stroke-linejoin:miter;stroke-miterlimit:4;stroke-dasharray:none;stroke-dashoffset:0;stroke-opacity:1;marker:none;marker-start:none;marker-mid:none;marker-end:none;paint-order:normal"/><rect width="104" height="100" x="12" y="12" rx="8" ry="8" style="display:inline;fill:url(#d);fill-opacity:1;stroke:none;stroke-width:.25;stroke-linecap:butt;stroke-linejoin:miter;stroke-miterlimit:4;stroke-dasharray:none;stroke-dashoffset:0;stroke-opacity:1;marker:none;marker-start:none;marker-mid:none;marker-end:none;paint-order:normal"/><path d="M51 101c7.176 0 13-5.824 13-13V75H51c-7.176 0-13 5.824-13 13s5.824 13 13 13" class="st0" style="fill:#0acf83;stroke-width:.26"/><path d="M38 62c0-7.176 5.824-13 13-13h13v26H51c-7.176 0-13-5.824-13-13" class="st1" style="fill:#a259ff;stroke-width:.26"/><path d="M38 36c0-7.176 5.824-13 13-13h13v26H51c-7.176 0-13-5.824-13-13" class="st2" style="fill:#f24e1e;stroke-width:.26"/><path d="M64 23h13c7.176 0 13 5.824 13 13s-5.824 13-13 13H64Z" class="st3" style="fill:#ff7262;stroke-width:.26"/><path d="M90 62c0 7.176-5.824 13-13 13s-13-5.824-13-13 5.824-13 13-13 13 5.824 13 13" class="st4" style="fill:#1abcfe;stroke-width:.26"/></svg>

<?xml version="1.0" encoding="UTF-8" standalone="no"?>
<svg
   viewBox="0 0 128 128"
   style="display:inline;enable-background:new"
   version="1.0"
   id="svg11300"
   height="128"
   width="128"
   xmlns:xlink="http://www.w3.org/1999/xlink"
   xmlns="http://www.w3.org/2000/svg"
   xmlns:svg="http://www.w3.org/2000/svg"
   xmlns:rdf="http://www.w3.org/1999/02/22-rdf-syntax-ns#"
   xmlns:cc="http://creativecommons.org/ns#"
   xmlns:dc="http://purl.org/dc/elements/1.1/">
  <title
     id="title4162">Adwaita Icon Template</title>
  <defs
     id="defs3">
    <linearGradient
       id="linearGradient1453">
      <stop
         style="stop-color:#4b505d;stop-opacity:1;"
         offset="0"
         id="stop1449" />
      <stop
         style="stop-color:#424652;stop-opacity:1;"
         offset="1"
         id="stop1451" />
    </linearGradient>
    <linearGradient
       id="linearGradient974">
      <stop
         style="stop-color:#2b2e36;stop-opacity:1;"
         offset="0"
         id="stop962" />
      <stop
         id="stop964"
         offset="0.04166667"
         style="stop-color:#4b505d;stop-opacity:1;" />
      <stop
         style="stop-color:#2b2e36;stop-opacity:1;"
         offset="0.08333334"
         id="stop966" />
      <stop
         id="stop968"
         offset="0.91666669"
         style="stop-color:#2b2e36;stop-opacity:1;" />
      <stop
         style="stop-color:#4b505d;stop-opacity:1;"
         offset="0.95833331"
         id="stop970" />
      <stop
         style="stop-color:#2b2e36;stop-opacity:1;"
         offset="1"
         id="stop972" />
    </linearGradient>
    <linearGradient
       y2="44"
       x2="464"
       y1="44"
       x1="48"
       gradientTransform="matrix(0.25,0,0,0.25,0,53)"
       gradientUnits="userSpaceOnUse"
       id="linearGradient1747"
       xlink:href="#linearGradient974" />
    <linearGradient
       xlink:href="#linearGradient1453"
       id="linearGradient1455"
       x1="64"
       y1="12"
       x2="64"
       y2="112"
       gradientUnits="userSpaceOnUse" />
  </defs>
  <metadata
     id="metadata4">
    <rdf:RDF>
      <cc:Work
         rdf:about="">
        <dc:format>image/svg+xml</dc:format>
        <dc:type
           rdf:resource="http://purl.org/dc/dcmitype/StillImage" />
        <dc:creator>
          <cc:Agent>
            <dc:title>GNOME Design Team</dc:title>
          </cc:Agent>
        </dc:creator>
        <dc:source />
        <cc:license
           rdf:resource="http://creativecommons.org/licenses/by-sa/4.0/" />
        <dc:title>Adwaita Icon Template</dc:title>
        <dc:subject>
          <rdf:Bag />
        </dc:subject>
        <dc:date />
        <dc:rights>
          <cc:Agent>
            <dc:title />
          </cc:Agent>
        </dc:rights>
        <dc:publisher>
          <cc:Agent>
            <dc:title />
          </cc:Agent>
        </dc:publisher>
        <dc:identifier />
        <dc:relation />
        <dc:language />
        <dc:coverage />
        <dc:description />
        <dc:contributor>
          <cc:Agent>
            <dc:title />
          </cc:Agent>
        </dc:contributor>
      </cc:Work>
      <cc:License
         rdf:about="http://creativecommons.org/licenses/by-sa/4.0/">
        <cc:permits
           rdf:resource="http://creativecommons.org/ns#Reproduction" />
        <cc:permits
           rdf:resource="http://creativecommons.org/ns#Distribution" />
        <cc:requires
           rdf:resource="http://creativecommons.org/ns#Notice" />
        <cc:requires
           rdf:resource="http://creativecommons.org/ns#Attribution" />
        <cc:permits
           rdf:resource="http://creativecommons.org/ns#DerivativeWorks" />
        <cc:requires
           rdf:resource="http://creativecommons.org/ns#ShareAlike" />
      </cc:License>
    </rdf:RDF>
  </metadata>
  <rect
     ry="8"
     rx="8"
     y="32"
     x="12"
     height="83.999992"
     width="104"
     id="rect1709"
     style="display:inline;fill:url(#linearGradient1747);fill-opacity:1;stroke:none;stroke-width:0.25;stroke-linecap:butt;stroke-linejoin:miter;stroke-miterlimit:4;stroke-dasharray:none;stroke-dashoffset:0;stroke-opacity:1;marker:none;marker-start:none;marker-mid:none;marker-end:none;paint-order:normal;enable-background:new" />
  <rect
     style="display:inline;fill:url(#linearGradient1455);fill-opacity:1;stroke:none;stroke-width:0.25;stroke-linecap:butt;stroke-linejoin:miter;stroke-miterlimit:4;stroke-dasharray:none;stroke-dashoffset:0;stroke-opacity:1;marker:none;marker-start:none;marker-mid:none;marker-end:none;paint-order:normal;enable-background:new"
     id="rect1711"
     width="104"
     height="100"
     x="12"
     y="12"
     rx="8"
     ry="8" />
  <path
     id="path0_fill"
     class="st0"
     d="m 51,101 c 7.176,0 13,-5.824001 13,-13 V 75 H 51 c -7.176,0 -13,5.824 -13,13 0,7.175999 5.824,13 13,13 z"
     style="fill:#0acf83;stroke-width:0.26" />
  <path
     id="path1_fill"
     class="st1"
     d="M 38,62 C 38,54.824 43.824,49 51,49 H 64 V 75 H 51 C 43.824,75 38,69.176 38,62 Z"
     style="fill:#a259ff;stroke-width:0.26" />
  <path
     id="path1_fill_1_"
     class="st2"
     d="M 38,36.000001 C 38,28.824001 43.824,23 51,23 H 64 V 49 H 51 C 43.824,49 38,43.176 38,36.000001 Z"
     style="fill:#f24e1e;stroke-width:0.26" />
  <path
     id="path2_fill"
     class="st3"
     d="m 64,23 h 13 c 7.176,0 13,5.824001 13,13.000001 C 90,43.176 84.176,49 77,49 H 64 Z"
     style="fill:#ff7262;stroke-width:0.26" />
  <path
     id="path3_fill"
     class="st4"
     d="m 90,62 c 0,7.176 -5.824,13 -13,13 -7.176,0 -13,-5.824 -13,-13 0,-7.176 5.824,-13 13,-13 7.176,0 13,5.824 13,13 z"
     style="fill:#1abcfe;stroke-width:0.26" />
</svg>
